teeny/solid/battery-charge.svg

<svg width="15" height="15" viewBox="0 0 15 15" fill="none" xmlns="http://www.w3.org/2000/svg">
<path fill-rule="evenodd" clip-rule="evenodd" d="M0 11.5C0 12.3284 0.671573 13 1.5 13L11.5 13C12.3284 13 13 12.3284 13 11.5V3.5C13 2.67157 12.3284 2 11.5 2H1.5C0.671572 2 0 2.67157 0 3.5V11.5ZM6.72358 5.05279C6.56859 4.97529 6.38452 4.98357 6.23711 5.07468C6.0897 5.16578 5.99997 5.32671 5.99997 5.5V8.69098L2.72358 7.05279L2.27637 7.94721L6.27637 9.94721C6.43136 10.0247 6.61543 10.0164 6.76284 9.92533C6.91025 9.83422 6.99997 9.67329 6.99997 9.5V6.30902L10.2764 7.94721L10.7236 7.05279L6.72358 5.05279Z" fill="black"/>
<path d="M15 5V10H14V5H15Z" fill="black"/>
</svg>

<svg viewBox="0 0 15 15" xmlns="http://www.w3.org/2000/svg"><path fill-rule="evenodd" d="M0 11.5c0 .82.67 1.5 1.5 1.5h10c.82 0 1.5-.68 1.5-1.5v-8c0-.83-.68-1.5-1.5-1.5h-10C.67 2 0 2.67 0 3.5v8Zm6.72-6.45c-.16-.08-.34-.07-.49.02 -.15.09-.24.25-.24.42v3.19L2.71 7.04l-.45.89 4 2c.15.07.33.06.48-.03 .14-.1.23-.26.23-.43v-3.2l3.27 1.63 .44-.9 -4.01-2Z"/><path d="M15 5v5h-1V5h1Z"/></svg>
